X:1
T:Title
%%score { ( 1 3 ) | ( 2 4 ) }
L:1/8
M:9/8
K:Db
V:1 treble nm="Grand Piano"
V:3 treble 
V:2 bass 
V:4 bass 
V:1
 z3 z3[Q:1/4=114] [FA][FA][FA] | [FA]3 [DF]3 [Fd][Fd][Fd] | [Fd]3 [FA]3 BBB | A3 F3 D3 | %4
[M:3/4] [A,CE]6 |[M:3/8] [EGA][EGA][EGA] |[M:9/8] [DFA]3 [A,DF]3 [Ad][Ad][Ad] | d3 B3 GAB | %8
 A3 d3 [Ec]3 | [Fd]8- [Fd] |[M:3/8] ccc |[M:9/8] c3 [Ee]3 BBB | B3 [Ec]3 AAA | [FB]3 [FA]3 [FB]3 | %14
[M:3/4] [_Fc]6 |[M:3/8] ccc |[M:9/8] c3 [Ee]3 BBB | B3 [Ec]3 [A,EA][A,EA][A,EA] | %18
 [DFB]3 [DF]3 [DE=G]3 |[M:15/16] A3- [GA]3- [G-A]G/ |[M:3/8] [FA][FA][FA] | %21
[M:9/8] [FA]3 [DF]3 [Fd][Fd][Fd] | [Fd]3 [FA]3 BBB | A3 F3 D3 |[M:3/4] [A,CE]6 | %25
[M:3/8] [EGA][EGA][EGA] |[M:9/8] [DFA]3 [A,DF]3 [Ad][Ad][Ad] | d3 B3 GAB | A3 d3 [Ec]3 | %29
[M:17/8] [Fd]-[Fd]-[Fd]-[Fd]-[Fd]-[Fd]- [Fd]3 z z z z z z z2 |] %30
V:2
 z3 z3 [D,D][D,D][D,D] | [D,D]3 [D,A,]3 [D,A,][D,A,][D,A,] | [D,A,]3 [D,D]3 [G,DG][G,DG][G,DG] | %3
 A,3 F,3 D,3 |[M:3/4] A,,6 |[M:3/8] C,C,C, |[M:9/8] D,3 D,3 [F,A,][F,A,][F,_C] | %7
 [G,B,G]3 [G,DG]3 [G,B,][K:treble][G,CG][G,DG] | [A,DF]3 [A,F]3[K:bass] [A,,A,]3 | %9
 [D,A,]8- [D,A,] |[M:3/8] [A,E][A,E][A,E] |[M:9/8] [A,E]3 [C,A,]3 [E,=G,E][E,G,E][E,G,E] | %12
 [E,G,E]3 [A,,A,]3 [F,A,C][F,A,C][F,A,C] | [D,F,]3 [D,F,]3 [D,F,]3 |[M:3/4] [C,=G,]6 | %15
[M:3/8] [A,E][A,E][A,E] |[M:9/8] [A,E]3 [C,A,]3 [E,=G,E][E,G,E][E,G,E] | %17
 [E,=G,E]3 [A,,A,]3 C,C,C, | D,3 D,3 E,3 |[M:15/16] z3 E3/2- E3 |[M:3/8] [D,D][D,D][D,D] | %21
[M:9/8] [D,D]3 [D,A,]3 [D,A,][D,A,][D,A,] | [D,A,]3 [D,D]3 [G,DG][G,DG][G,DG] | A,3 F,3 D,3 | %24
[M:3/4] A,,6 |[M:3/8] C,C,C, |[M:9/8] D,3 D,3 [F,A,][F,A,][F,_C] | %27
 [G,B,G]3 [G,DG]3 [G,B,][K:treble][G,CG][G,DG] | [A,DF]3 [A,F]3[K:bass] [A,,A,]3 | %29
[M:17/8] [D,A,]-[D,A,]-[D,A,]-[D,A,]-[D,A,]-[D,A,]- [D,A,]3 z z z z z z z2 |] %30
V:3
 x9 | x9 | x9 | x9 |[M:3/4] x6 |[M:3/8] x3 |[M:9/8] x9 | x9 | x9 | x9 |[M:3/8] x3 |[M:9/8] x9 | %12
 x9 | x9 |[M:3/4] x6 |[M:3/8] x3 |[M:9/8] x9 | x9 | x9 |[M:15/16] [CE]3 z3/2 z3 |[M:3/8] x3 | %21
[M:9/8] x9 | x9 | x9 |[M:3/4] x6 |[M:3/8] x3 |[M:9/8] x9 | x9 | x9 |[M:17/8] x17 |] %30
V:4
 x9 | x9 | x9 | x9 |[M:3/4] x6 |[M:3/8] x3 |[M:9/8] x9 | x7[K:treble] x2 | x6[K:bass] x3 | x9 | %10
[M:3/8] x3 |[M:9/8] x9 | x9 | x9 |[M:3/4] x6 |[M:3/8] x3 |[M:9/8] x9 | x9 | x9 | %19
[M:15/16] A,,3/2-A,,3/2- A,,3- A,, z/ |[M:3/8] x3 |[M:9/8] x9 | x9 | x9 |[M:3/4] x6 |[M:3/8] x3 | %26
[M:9/8] x9 | x7[K:treble] x2 | x6[K:bass] x3 |[M:17/8] x17 |] %30

